X: 49
P: Longways for as many as will
M: 6/8
L: 1/8
K: D
V: 1
aAA ABc | BAG g2f/g/ | agf ed^c | d3 f2 :|
|: f/g/ |\
afd faf | e^ce efg | afd d>ed | f3 Tg2f/g/ |\
afd faf | e^ce efg | agf ed^c | d3 f2 :|
V: 2 clef=bass middle=d
z |\
d3 D3 | g3 G3 | d3 zzd | dAF D2d |\
d3 D3 | g2d B2G | f2d a2A | dAF D2 :|
|: z |\
d'3 d3 | a3 A3 | d2f a2f | d3 e2c |\
d2f a2d | a3 A3 | fed a2A | dAF D2 :|

